X: 396
T: The northern road
C: anon.
O: Ireland
B: Francis O'Neill: "The Dance Music of Ireland" (1907) no. 396
R: Single jig
Z: Transcribed by Frank Nordberg - http://www.musicaviva.com
F: http://www.musicaviva.com/abc/tunes/ireland/oneill-1001/oneill-1001-039
6.abc
M: 6/8
L: 1/8
K: D
d|AGF A2D|DED FED|AGF A2D|F3 d3|AGF A2D|DED AGF|EFE E2F|G3 B3:|ABc d2F|
AGF d2F|ABc dAF|B3 d3|[1 ABc ded|cBA d2A|Bcd EFE|G3 B3:|[2 faf gec|fdB AF
D|EFE E2F|G3 B3|]
W:
W:
W: From Musica Viva - http://www.musicaviva.com
W: the Internet center for free sheet music downloads.


